X: 104104
T: JENNY'S BAWBEE
Q:"Reel."
R: Reel.
%R:reel
B: James Kerr "Merry Melodies" v.1 p.4 s.1 #4
Z: 2017 John Chambers <jc:trillian.mit.edu>
M: C
L: 1/8
K: D
uf |\
abag fddf | gfed cAAf |\
abag fdfa | BBcA d2-d ::\
e |\
fdge fddf | gfed cAAg |\
fdge fdfa | BBcA d2-d :|

%%sep 1 1 500
%%sep 1 1 500

